src/assets/svg/discord.svg

<svg width="33" height="25" viewBox="0 0 33 25" fill="none" xmlns="http://www.w3.org/2000/svg">
<path d="M27.5004 2.13713C25.4918 1.20737 23.317 0.532546 21.0516 0.142647C21.0318 0.142016 21.012 0.145718 20.9937 0.15349C20.9755 0.161263 20.9591 0.172919 20.9459 0.187636C20.6741 0.682508 20.3569 1.32734 20.1455 1.82221C17.7427 1.46231 15.2991 1.46231 12.8963 1.82221C12.6848 1.31234 12.3677 0.682508 12.0807 0.187636C12.0656 0.157644 12.0203 0.142647 11.975 0.142647C9.70964 0.532546 7.54999 1.20737 5.52625 2.13713C5.51115 2.13713 5.49605 2.15213 5.48094 2.16712C1.37306 8.27055 0.240373 14.209 0.799166 20.0875C0.799166 20.1175 0.814268 20.1475 0.844473 20.1625C3.56292 22.142 6.17566 23.3417 8.75819 24.1364C8.80349 24.1514 8.8488 24.1364 8.8639 24.1065C9.468 23.2817 10.0117 22.4119 10.4799 21.4971C10.5101 21.4371 10.4799 21.3772 10.4195 21.3622C9.55862 21.0323 8.74308 20.6424 7.94265 20.1925C7.88224 20.1625 7.88224 20.0725 7.92755 20.0275C8.09368 19.9075 8.2598 19.7726 8.42593 19.6526C8.45614 19.6226 8.50144 19.6226 8.53165 19.6376C13.7269 21.992 19.3299 21.992 24.4648 19.6376C24.495 19.6226 24.5403 19.6226 24.5705 19.6526C24.7366 19.7876 24.9028 19.9075 25.0689 20.0425C25.1293 20.0875 25.1293 20.1775 25.0538 20.2075C24.2685 20.6723 23.4378 21.0472 22.577 21.3772C22.5166 21.3922 22.5015 21.4671 22.5166 21.5121C22.9999 22.4269 23.5435 23.2967 24.1325 24.1215C24.1778 24.1364 24.2232 24.1514 24.2685 24.1364C26.8661 23.3417 29.4788 22.142 32.1973 20.1625C32.2275 20.1475 32.2426 20.1175 32.2426 20.0875C32.9071 13.2942 31.1401 7.40077 27.5608 2.16712C27.5457 2.15213 27.5306 2.13713 27.5004 2.13713ZM11.2652 16.5034C9.70965 16.5034 8.41083 15.0788 8.41083 13.3242C8.41083 11.5697 9.67944 10.1451 11.2652 10.1451C12.8661 10.1451 14.1347 11.5847 14.1196 13.3242C14.1196 15.0788 12.851 16.5034 11.2652 16.5034ZM21.7917 16.5034C20.2361 16.5034 18.9373 15.0788 18.9373 13.3242C18.9373 11.5697 20.2059 10.1451 21.7917 10.1451C23.3925 10.1451 24.6611 11.5847 24.646 13.3242C24.646 15.0788 23.3925 16.5034 21.7917 16.5034Z" fill="#141416" fillOpacity="0.7"/>
</svg>

<svg xmlns="http://www.w3.org/2000/svg" width="33" height="25" fill="none"><path fill="#141416" d="M27.5 2.137A25.8 25.8 0 0 0 21.052.143a.14.14 0 0 0-.106.045 20 20 0 0 0-.8 1.634 24.5 24.5 0 0 0-7.25 0c-.211-.51-.528-1.14-.815-1.634-.015-.03-.06-.045-.106-.045a26 26 0 0 0-6.449 1.994c-.015 0-.03.015-.045.03C1.373 8.271.24 14.21.799 20.087c0 .03.015.06.045.076 2.719 1.979 5.332 3.179 7.914 3.973.045.015.09 0 .106-.03a19 19 0 0 0 1.616-2.609c.03-.06 0-.12-.06-.135-.861-.33-1.677-.72-2.477-1.17-.06-.03-.06-.12-.015-.165.166-.12.332-.254.498-.374.03-.03.075-.03.106-.015 5.195 2.354 10.798 2.354 15.933 0a.09.09 0 0 1 .105.015c.167.135.333.255.499.39.06.044.06.134-.015.165-.785.464-1.616.84-2.477 1.17-.06.014-.076.09-.06.134a23 23 0 0 0 1.616 2.61c.045.014.09.03.136.014 2.597-.794 5.21-1.994 7.928-3.973a.08.08 0 0 0 .046-.076c.664-6.793-1.103-12.686-4.682-17.92-.015-.015-.03-.03-.06-.03M11.265 16.503c-1.555 0-2.854-1.424-2.854-3.179s1.268-3.179 2.854-3.179c1.601 0 2.87 1.44 2.855 3.18 0 1.754-1.269 3.178-2.855 3.178m10.527 0c-1.556 0-2.855-1.424-2.855-3.179s1.269-3.179 2.855-3.179c1.6 0 2.87 1.44 2.854 3.18 0 1.754-1.254 3.178-2.854 3.178"/></svg>
